public/img/icons/rivi-alas.svg

<?xml version="1.0" encoding="UTF-8"?>
<svg width="20px" height="20px" viewBox="0 0 20 20" version="1.1" xmlns="http://www.w3.org/2000/svg" xmlns:xlink="http://www.w3.org/1999/xlink">
    <!-- Generator: Sketch 61 (89581) - https://sketch.com -->
    <title>Rivi_alas</title>
    <desc>Created with Sketch.</desc>
    <defs>
        <path d="M16,3 L16,4.56653776 L16,9.999 L18,10 C19.1045695,10 20,10.8954305 20,12 L20,15 C20,16.1045695 19.1045695,17 18,17 L2,17 C0.8954305,17 0,16.1045695 0,15 L0,12 C0,10.8954305 0.8954305,10 2,10 L4,10 L4,5 C4,4.26362033 4,3.59695367 4,3 L16,3 Z M18,12 L14.0191858,11.9999099 C14.0127976,11.9999699 14.0064023,12 14,12 L2,12 L2,15 L18,15 L18,12 Z M8,8 L6,8 L6,10 L8,10 L8,8 Z M11,7.999 L9,8 L9,10 L11,10 L11,7.999 Z M14,7.999 L12,7.999 L12,9.999 L14,9.999 L14,7.999 Z M7.999,5 L6,5 L6,7 L7.999,7 L7.999,5 Z M11,5 L8.999,5 L8.999,7 L11,6.999 L11,5 Z M14,5 L11.999,5 L11.999,6.999 L14,6.999 L14,5 Z" id="path-1"></path>
    </defs>
    <g id="ASSETIT-+-tekstityylit" stroke="none" stroke-width="1" fill="none" fill-rule="evenodd">
        <g id="Ryhma-Copy-105">
            <mask id="mask-2" fill="white">
                <use xlink:href="#path-1"></use>
            </mask>
            <use id="Combined-Shape" fill="#2B2B2B" fill-rule="nonzero" xlink:href="#path-1"></use>
        </g>
    </g>
</svg>

<svg width="20" height="20" xmlns="http://www.w3.org/2000/svg" xmlns:xlink="http://www.w3.org/1999/xlink">
    <defs>
        <path d="M16 3v6.999L18 10a2 2 0 012 2v3a2 2 0 01-2 2H2a2 2 0 01-2-2v-3a2 2 0 012-2h2V3h12zm2 9H2v3h16v-3zM8 8H6v2h2V8zm3-.001L9 8v2h2V7.999zm3 0h-2v2h2v-2zM7.999 5H6v2h1.999V5zM11 5H8.999v2L11 6.999V5zm3 0h-2.001v1.999H14V5z" id="a"/>
    </defs>
    <use fill="#2B2B2B" xlink:href="#a"/>
</svg>
